assets/images/skills/karmal-talent.svg

<?xml version="1.0" encoding="UTF-8" standalone="no"?>
<svg
   xmlns:dc="http://purl.org/dc/elements/1.1/"
   xmlns:cc="http://creativecommons.org/ns#"
   xmlns:rdf="http://www.w3.org/1999/02/22-rdf-syntax-ns#"
   xmlns:svg="http://www.w3.org/2000/svg"
   xmlns="http://www.w3.org/2000/svg"
   xmlns:xlink="http://www.w3.org/1999/xlink"
   xmlns:sodipodi="http://sodipodi.sourceforge.net/DTD/sodipodi-0.dtd"
   xmlns:inkscape="http://www.inkscape.org/namespaces/inkscape"
   inkscape:version="1.0 (4035a4fb49, 2020-05-01)"
   sodipodi:docname="karmal-talent1_wc.svg"
   id="svg5"
   version="1.1"
   height="512"
   width="512"
   viewBox="0 0 512 512">
  <title
     id="title849">Devine: Miracle</title>
  <metadata
     id="metadata11">
    <rdf:RDF>
      <cc:Work
         rdf:about="">
        <dc:format>image/svg+xml</dc:format>
        <dc:type
           rdf:resource="http://purl.org/dc/dcmitype/StillImage" />
        <dc:title>Devine: Miracle</dc:title>
        <cc:license
           rdf:resource="http://creativecommons.org/licenses/by-sa/4.0/" />
        <dc:date>2022.02.08</dc:date>
        <dc:creator>
          <cc:Agent>
            <dc:title>Streuner²</dc:title>
          </cc:Agent>
        </dc:creator>
        <dc:contributor>
          <cc:Agent>
            <dc:title>completely selfmade</dc:title>
          </cc:Agent>
        </dc:contributor>
      </cc:Work>
      <cc:License
         rdf:about="http://creativecommons.org/licenses/by-sa/4.0/">
        <cc:permits
           rdf:resource="http://creativecommons.org/ns#Reproduction" />
        <cc:permits
           rdf:resource="http://creativecommons.org/ns#Distribution" />
        <cc:requires
           rdf:resource="http://creativecommons.org/ns#Notice" />
        <cc:requires
           rdf:resource="http://creativecommons.org/ns#Attribution" />
        <cc:permits
           rdf:resource="http://creativecommons.org/ns#DerivativeWorks" />
        <cc:requires
           rdf:resource="http://creativecommons.org/ns#ShareAlike" />
      </cc:License>
    </rdf:RDF>
  </metadata>
  <defs
     id="defs9">
    <linearGradient
       inkscape:collect="always"
       id="linearGradient861">
      <stop
         style="stop-color:#fde1fc;stop-opacity:1"
         offset="0"
         id="stop857" />
      <stop
         style="stop-color:#8e5d6f;stop-opacity:1"
         offset="1"
         id="stop859" />
    </linearGradient>
    <radialGradient
       inkscape:collect="always"
       xlink:href="#linearGradient861"
       id="radialGradient863"
       cx="256.00012"
       cy="256"
       fx="256.00012"
       fy="256"
       r="185.00989"
       gradientTransform="matrix(1,0,0,0.99989375,0,0.02720028)"
       gradientUnits="userSpaceOnUse" />
  </defs>
  <sodipodi:namedview
     inkscape:current-layer="svg5"
     inkscape:window-maximized="1"
     inkscape:window-y="-11"
     inkscape:window-x="-11"
     inkscape:cy="214.69317"
     inkscape:cx="-4.9573158"
     inkscape:zoom="1.8732344"
     showgrid="false"
     id="namedview7"
     inkscape:window-height="2066"
     inkscape:window-width="3840"
     inkscape:pageshadow="2"
     inkscape:pageopacity="0.61960784"
     guidetolerance="10"
     gridtolerance="10"
     objecttolerance="10"
     borderopacity="1"
     bordercolor="#666666"
     pagecolor="#323232"
     inkscape:document-rotation="0"
     borderlayer="false"
     inkscape:showpageshadow="false"
     showguides="true"
     inkscape:guide-bbox="true"
     guidecolor="#00ff00"
     guideopacity="0.49803922">
    <sodipodi:guide
       inkscape:color="rgb(0,255,0)"
       inkscape:locked="false"
       inkscape:label=""
       position="256,256"
       orientation="-1,0"
       id="guide869" />
    <sodipodi:guide
       inkscape:color="rgb(0,255,0)"
       inkscape:locked="false"
       inkscape:label=""
       position="256,256"
       orientation="0,1"
       id="guide905" />
  </sodipodi:namedview>
  <filter
     id="shadow">
    <feDropShadow
       stdDeviation="6"
       dy="12"
       dx="6" />
  </filter>
  <g
     id="g845"
     style="fill-opacity:1;fill:#8e5d6f">
    <path
       d="M 359.59961 248.49023 L 346.64062 310.13281 L 304.59766 263.22852 L 324.19727 323.0918 L 264.33203 303.49219 L 311.23828 345.53711 L 249.59375 358.49609 L 311.23828 371.45312 L 264.33203 413.49805 L 324.19727 393.89844 L 311.55273 432.51758 L 305.92969 449.69531 L 304.59961 453.75977 L 329.7168 425.73828 C 329.7178 425.7377 329.7197 425.73733 329.7207 425.73633 L 346.64062 406.85742 L 348.60742 416.2168 L 348.60938 416.2168 L 351.83008 431.5332 L 351.82812 431.53516 L 359.59961 468.50195 L 369.69336 420.48633 L 372.55859 406.85742 L 378.78906 413.80859 L 414.59961 453.75977 L 395.00195 393.90039 L 395.00195 393.89844 L 395.00391 393.89844 L 399.38867 395.33398 L 454.86328 413.49609 L 414.76172 377.55078 L 407.96289 371.45508 L 407.96094 371.45312 L 469.60547 358.49609 L 432.18945 350.63086 L 416.9082 347.41992 C 416.9082 347.41992 416.9082 347.41797 416.9082 347.41797 L 407.96094 345.53711 L 425.8418 329.50977 L 432.85547 323.22266 L 448.91992 308.82227 L 454.86328 303.49609 L 449.90039 305.11914 L 432.79492 310.7207 C 432.79492 310.7207 432.79492 310.71875 432.79492 310.71875 L 395.00195 323.0918 L 414.60352 263.22852 L 372.55859 310.13281 L 359.59961 248.49023 z M 359.59961 309.69531 C 386.22207 309.69531 407.98032 331.23822 408.37891 357.76367 A 7.5 7.5 0 0 1 408.41602 358.49609 A 7.5 7.5 0 0 1 408.37695 359.24805 C 407.96769 385.7643 386.21536 407.29492 359.59961 407.29492 C 332.73 407.29492 310.78516 385.35989 310.78516 358.49609 C 310.78516 331.63229 332.73 309.69532 359.59961 309.69531 z "
       style="color:#000000;font-style:normal;font-variant:normal;font-weight:normal;font-stretch:normal;font-size:medium;line-height:normal;font-family:sans-serif;font-variant-ligatures:normal;font-variant-position:normal;font-variant-caps:normal;font-variant-numeric:normal;font-variant-alternates:normal;font-variant-east-asian:normal;font-feature-settings:normal;font-variation-settings:normal;text-indent:0;text-align:start;text-decoration:none;text-decoration-line:none;text-decoration-style:solid;text-decoration-color:#000000;letter-spacing:normal;word-spacing:normal;text-transform:none;writing-mode:lr-tb;direction:ltr;text-orientation:mixed;dominant-baseline:auto;baseline-shift:baseline;text-anchor:start;white-space:normal;shape-padding:0;shape-margin:0;inline-size:0;clip-rule:nonzero;display:inline;overflow:visible;visibility:visible;isolation:auto;mix-blend-mode:normal;color-interpolation:sRGB;color-interpolation-filters:linearRGB;solid-color:#000000;solid-opacity:1;vector-effect:none;fill:#8e5d6f;fill-opacity:1;fill-rule:evenodd;stroke:none;stroke-width:30;stroke-linecap:round;stroke-linejoin:round;stroke-miterlimit:4;stroke-dasharray:none;stroke-dashoffset:0;stroke-opacity:1;paint-order:stroke fill markers;color-rendering:auto;image-rendering:auto;shape-rendering:auto;text-rendering:auto;enable-background:accumulate;stop-color:#000000"
       id="path836" />
    <path
       id="path840"
       d="m 359.59961,324.69531 c -18.76621,10e-6 -33.81445,15.04679 -33.81445,33.80078 0,18.754 15.04824,33.79883 33.81445,33.79883 18.76621,0 33.81641,-15.04483 33.81641,-33.79883 0,-18.754 -15.0502,-33.80078 -33.81641,-33.80078 z"
       style="color:#000000;font-style:normal;font-variant:normal;font-weight:normal;font-stretch:normal;font-size:medium;line-height:normal;font-family:sans-serif;font-variant-ligatures:normal;font-variant-position:normal;font-variant-caps:normal;font-variant-numeric:normal;font-variant-alternates:normal;font-variant-east-asian:normal;font-feature-settings:normal;font-variation-settings:normal;text-indent:0;text-align:start;text-decoration:none;text-decoration-line:none;text-decoration-style:solid;text-decoration-color:#000000;letter-spacing:normal;word-spacing:normal;text-transform:none;writing-mode:lr-tb;direction:ltr;text-orientation:mixed;dominant-baseline:auto;baseline-shift:baseline;text-anchor:start;white-space:normal;shape-padding:0;shape-margin:0;inline-size:0;clip-rule:nonzero;display:inline;overflow:visible;visibility:visible;isolation:auto;mix-blend-mode:normal;color-interpolation:sRGB;color-interpolation-filters:linearRGB;solid-color:#000000;solid-opacity:1;vector-effect:none;fill:#8e5d6f;fill-opacity:1;fill-rule:evenodd;stroke:none;stroke-width:30;stroke-linecap:round;stroke-linejoin:round;stroke-miterlimit:4;stroke-dasharray:none;stroke-dashoffset:0;stroke-opacity:1;paint-order:stroke fill markers;color-rendering:auto;image-rendering:auto;shape-rendering:auto;text-rendering:auto;enable-background:accumulate;stop-color:#000000" />
  </g>
  <path
     style="color:#000000;font-style:normal;font-variant:normal;font-weight:normal;font-stretch:normal;font-size:medium;line-height:normal;font-family:sans-serif;font-variant-ligatures:normal;font-variant-position:normal;font-variant-caps:normal;font-variant-numeric:normal;font-variant-alternates:normal;font-variant-east-asian:normal;font-feature-settings:normal;font-variation-settings:normal;text-indent:0;text-align:start;text-decoration:none;text-decoration-line:none;text-decoration-style:solid;text-decoration-color:#000000;letter-spacing:normal;word-spacing:normal;text-transform:none;writing-mode:lr-tb;direction:ltr;text-orientation:mixed;dominant-baseline:auto;baseline-shift:baseline;text-anchor:start;white-space:normal;shape-padding:0;shape-margin:0;inline-size:0;clip-rule:nonzero;display:inline;overflow:visible;visibility:visible;isolation:auto;mix-blend-mode:normal;color-interpolation:sRGB;color-interpolation-filters:linearRGB;solid-color:#000000;solid-opacity:1;vector-effect:none;fill:url(#radialGradient863);fill-opacity:1;fill-rule:evenodd;stroke:none;stroke-width:30;stroke-linecap:round;stroke-linejoin:round;stroke-miterlimit:4;stroke-dasharray:none;stroke-dashoffset:0;stroke-opacity:1;paint-order:stroke fill markers;color-rendering:auto;image-rendering:auto;shape-rendering:auto;text-rendering:auto;enable-background:accumulate;stop-color:#000000"
     d="M 256,71.009766 C 155.3302,71.009764 73.580879,151.17891 71.050781,251.2207 c -0.04016,1.58797 -0.06055,3.18156 -0.06055,4.7793 0,49.52987 19.413094,94.47973 51.054686,127.66602 1.0207,1.07052 2.05371,2.12998 3.09961,3.17578 33.46898,33.46565 79.7216,54.14844 130.85547,54.14843 1.4764,0 2.94801,-0.0242 4.41602,-0.0586 0.41908,-0.01 0.83747,-0.0226 1.25586,-0.0352 1.09963,-0.0331 2.19634,-0.0766 3.29101,-0.1289 0.41875,-0.0199 0.83785,-0.0359 1.25586,-0.0586 1.44498,-0.0787 2.88639,-0.1715 4.32227,-0.2832 0.15733,-0.0122 0.31347,-0.0284 0.4707,-0.041 1.31795,-0.1059 2.63146,-0.22604 3.9414,-0.35938 0.35774,-0.0364 0.71515,-0.0749 1.07227,-0.11328 1.2735,-0.1371 2.54302,-0.28451 3.80859,-0.44727 0.17236,-0.0221 0.34538,-0.0418 0.51758,-0.0644 1.53715,-0.20208 3.06878,-0.42264 4.59375,-0.66211 1.48008,-0.23242 2.9537,-0.48479 4.42188,-0.75195 0.18499,-0.0337 0.36988,-0.0674 0.55469,-0.10156 1.46329,-0.27089 2.92206,-0.55638 4.37304,-0.86133 l 6.43555,-19.65821 -31.73242,10.38868 a 15.001488,15.001488 0 0 1 -14.67774,-25.42579 l 24.86133,-22.28515 -32.67383,-6.86914 a 15.001488,15.001488 0 0 1 0,-29.35742 l 32.67383,-6.86914 -24.86133,-22.28516 A 15.001488,15.001488 0 0 1 269,289.23633 l 31.73047,10.39062 -10.38867,-31.73242 a 15.001488,15.001488 0 0 1 10.3164,-19.13476 15.001488,15.001488 0 0 1 15.10742,4.45703 l 22.28711,24.86328 6.86915,-32.67578 a 15.001488,15.001488 0 0 1 14.60742,-11.90821 15.001488,15.001488 0 0 1 14.75,11.90821 l 6.86718,32.67382 22.28711,-24.86328 a 15.001488,15.001488 0 0 1 25.42383,14.67969 l -10.38867,31.73242 18.73828,-6.13672 c 0.30866,-1.50154 0.59883,-3.00882 0.87109,-4.52343 0.002,-0.0117 0.004,-0.0235 0.006,-0.0352 0.002,-0.01 0.004,-0.0195 0.006,-0.0293 0.5404,-3.01236 1.00712,-6.05203 1.40039,-9.11328 0.0125,-0.0975 0.0248,-0.19538 0.0371,-0.29297 0.17384,-1.37038 0.33087,-2.74538 0.47461,-4.125 0.0213,-0.20501 0.0419,-0.41002 0.0625,-0.61523 0.14874,-1.47513 0.28455,-2.95423 0.39844,-4.43945 0.11106,-1.44822 0.2018,-2.90194 0.2793,-4.35938 0.0199,-0.37636 0.035,-0.7539 0.0527,-1.13086 0.0501,-1.06446 0.091,-2.13203 0.12305,-3.20117 0.0132,-0.44246 0.027,-0.88488 0.0371,-1.32812 0.0327,-1.42887 0.0547,-2.86009 0.0547,-4.29688 C 441.00976,153.7448 358.26773,71.009766 256,71.009766 Z"
     id="path925" />
</svg>

<svg xmlns="http://www.w3.org/2000/svg" xmlns:xlink="http://www.w3.org/1999/xlink" width="512" height="512" viewBox="0 0 512 512"><title>Devine: Miracle</title><defs><radialGradient xlink:href="#a" id="b" cx="256" cy="256" r="185.01" fx="256" fy="256" gradientTransform="matrix(1 0 0 .9999 0 .027)" gradientUnits="userSpaceOnUse"/><linearGradient id="a"><stop offset="0" style="stop-color:#fde1fc;stop-opacity:1"/><stop offset="1" style="stop-color:#8e5d6f;stop-opacity:1"/></linearGradient></defs><g style="fill-opacity:1;fill:#8e5d6f"><path d="m359.6 248.49-12.96 61.643-42.042-46.904 19.6 59.863-59.866-19.6 46.906 42.045-61.644 12.96 61.644 12.956-46.906 42.045 59.865-19.6-12.644 38.62-5.623 17.177-1.33 4.065 25.117-28.022q.001 0 .004-.002l16.92-18.879 1.966 9.36h.002l3.221 15.316-.002.002 7.772 36.967 10.093-48.016 2.866-13.629 6.23 6.952 35.81 39.95-19.597-59.859v-.002h.002l4.385 1.436 55.474 18.162-40.101-35.945-6.8-6.096-.001-.002 61.644-12.957-37.416-7.865-15.28-3.211v-.002l-8.948-1.88 17.88-16.028 7.014-6.287 16.065-14.4 5.943-5.327-4.963 1.623-17.105 5.602v-.002l-37.793 12.373 19.602-59.863-42.045 46.904zm0 61.205c26.622 0 48.38 21.543 48.779 48.069a8 8 0 0 1 .037.732 8 8 0 0 1-.039.752c-.41 26.516-22.162 48.047-48.777 48.047-26.87 0-48.815-21.935-48.815-48.799s21.945-48.8 48.815-48.8" style="color:#000;font-style:normal;font-variant:normal;font-weight:400;font-stretch:normal;font-size:medium;line-height:normal;font-family:sans-serif;font-variant-ligatures:normal;font-variant-position:normal;font-variant-caps:normal;font-variant-numeric:normal;font-variant-alternates:normal;font-variant-east-asian:normal;font-feature-settings:normal;font-variation-settings:normal;text-indent:0;text-align:start;text-decoration:none;text-decoration-line:none;text-decoration-style:solid;text-decoration-color:#000;letter-spacing:normal;word-spacing:normal;text-transform:none;writing-mode:lr-tb;direction:ltr;text-orientation:mixed;dominant-baseline:auto;baseline-shift:baseline;text-anchor:start;white-space:normal;shape-padding:0;shape-margin:0;inline-size:0;clip-rule:nonzero;display:inline;overflow:visible;visibility:visible;isolation:auto;mix-blend-mode:normal;color-interpolation:sRGB;color-interpolation-filters:linearRGB;solid-color:#000;solid-opacity:1;vector-effect:none;fill:#8e5d6f;fill-opacity:1;fill-rule:evenodd;stroke:none;stroke-width:30;stroke-linecap:round;stroke-linejoin:round;stroke-miterlimit:4;stroke-dasharray:none;stroke-dashoffset:0;stroke-opacity:1;paint-order:stroke fill markers;color-rendering:auto;image-rendering:auto;shape-rendering:auto;text-rendering:auto;stop-color:#000"/><path d="M359.6 324.695a33.695 33.695 0 0 0-33.815 33.801 33.693 33.693 0 0 0 33.815 33.799 33.695 33.695 0 0 0 33.816-33.799c0-18.754-15.05-33.8-33.816-33.8" style="color:#000;font-style:normal;font-variant:normal;font-weight:400;font-stretch:normal;font-size:medium;line-height:normal;font-family:sans-serif;font-variant-ligatures:normal;font-variant-position:normal;font-variant-caps:normal;font-variant-numeric:normal;font-variant-alternates:normal;font-variant-east-asian:normal;font-feature-settings:normal;font-variation-settings:normal;text-indent:0;text-align:start;text-decoration:none;text-decoration-line:none;text-decoration-style:solid;text-decoration-color:#000;letter-spacing:normal;word-spacing:normal;text-transform:none;writing-mode:lr-tb;direction:ltr;text-orientation:mixed;dominant-baseline:auto;baseline-shift:baseline;text-anchor:start;white-space:normal;shape-padding:0;shape-margin:0;inline-size:0;clip-rule:nonzero;display:inline;overflow:visible;visibility:visible;isolation:auto;mix-blend-mode:normal;color-interpolation:sRGB;color-interpolation-filters:linearRGB;solid-color:#000;solid-opacity:1;vector-effect:none;fill:#8e5d6f;fill-opacity:1;fill-rule:evenodd;stroke:none;stroke-width:30;stroke-linecap:round;stroke-linejoin:round;stroke-miterlimit:4;stroke-dasharray:none;stroke-dashoffset:0;stroke-opacity:1;paint-order:stroke fill markers;color-rendering:auto;image-rendering:auto;shape-rendering:auto;text-rendering:auto;stop-color:#000"/></g><path d="M256 71.01c-100.67 0-182.42 80.169-184.95 180.21a189 189 0 0 0-.06 4.78c0 49.53 19.413 94.48 51.055 127.666q1.53 1.606 3.1 3.176C158.614 420.307 204.866 440.99 256 440.99a188 188 0 0 0 5.672-.094q1.65-.05 3.29-.128c.42-.02.839-.036 1.257-.06a187 187 0 0 0 4.322-.282c.157-.012.313-.029.47-.041a186 186 0 0 0 3.942-.36q.537-.055 1.072-.113a186 186 0 0 0 3.809-.447q.258-.032.518-.065 2.305-.302 4.593-.662a185 185 0 0 0 4.977-.853q2.196-.406 4.373-.862l6.435-19.658-31.732 10.389a15.001 15.001 0 0 1-14.678-25.426l24.862-22.285-32.674-6.87a15.001 15.001 0 0 1 0-29.357l32.674-6.869-24.862-22.285A15.001 15.001 0 0 1 269 289.236l31.73 10.391-10.388-31.732a15 15 0 0 1 10.316-19.135 15 15 0 0 1 15.108 4.457l22.287 24.863 6.869-32.676a15 15 0 0 1 14.607-11.908 15 15 0 0 1 14.75 11.908l6.867 32.674 22.288-24.863a15.001 15.001 0 0 1 25.423 14.68l-10.388 31.732 18.738-6.137q.463-2.252.871-4.523l.006-.035.006-.03q.81-4.52 1.4-9.113l.038-.293a186 186 0 0 0 .537-4.74c.148-1.475.284-2.954.398-4.44q.165-2.173.28-4.359c.02-.376.034-.754.052-1.13q.075-1.598.123-3.202.02-.663.037-1.328c.033-1.429.055-2.86.055-4.297 0-102.255-82.742-184.99-185.01-184.99" style="color:#000;font-style:normal;font-variant:normal;font-weight:400;font-stretch:normal;font-size:medium;line-height:normal;font-family:sans-serif;font-variant-ligatures:normal;font-variant-position:normal;font-variant-caps:normal;font-variant-numeric:normal;font-variant-alternates:normal;font-variant-east-asian:normal;font-feature-settings:normal;font-variation-settings:normal;text-indent:0;text-align:start;text-decoration:none;text-decoration-line:none;text-decoration-style:solid;text-decoration-color:#000;letter-spacing:normal;word-spacing:normal;text-transform:none;writing-mode:lr-tb;direction:ltr;text-orientation:mixed;dominant-baseline:auto;baseline-shift:baseline;text-anchor:start;white-space:normal;shape-padding:0;shape-margin:0;inline-size:0;clip-rule:nonzero;display:inline;overflow:visible;visibility:visible;isolation:auto;mix-blend-mode:normal;color-interpolation:sRGB;color-interpolation-filters:linearRGB;solid-color:#000;solid-opacity:1;vector-effect:none;fill:url(#b);fill-opacity:1;fill-rule:evenodd;stroke:none;stroke-width:30;stroke-linecap:round;stroke-linejoin:round;stroke-miterlimit:4;stroke-dasharray:none;stroke-dashoffset:0;stroke-opacity:1;paint-order:stroke fill markers;color-rendering:auto;image-rendering:auto;shape-rendering:auto;text-rendering:auto;stop-color:#000"/></svg>
